public/piece/monarchy/bR.svg

<?xml version="1.0" encoding="UTF-8" standalone="no"?>
<svg
   width="640pt"
   height="640pt"
   viewBox="0 0 640 640"
   version="1.1"
   id="svg14"
   sodipodi:docname="br.svg"
   inkscape:version="1.3.2 (091e20e, 2023-11-25, custom)"
   xmlns:inkscape="http://www.inkscape.org/namespaces/inkscape"
   xmlns:sodipodi="http://sodipodi.sourceforge.net/DTD/sodipodi-0.dtd"
   xmlns="http://www.w3.org/2000/svg"
   xmlns:svg="http://www.w3.org/2000/svg">
  <defs
     id="defs14" />
  <sodipodi:namedview
     id="namedview14"
     pagecolor="#ffffff"
     bordercolor="#000000"
     borderopacity="0.25"
     inkscape:showpageshadow="2"
     inkscape:pageopacity="0.0"
     inkscape:pagecheckerboard="0"
     inkscape:deskcolor="#d1d1d1"
     inkscape:document-units="pt"
     inkscape:zoom="0.33837891"
     inkscape:cx="-1493.8874"
     inkscape:cy="1026.9553"
     inkscape:window-width="2560"
     inkscape:window-height="1351"
     inkscape:window-x="1341"
     inkscape:window-y="712"
     inkscape:window-maximized="1"
     inkscape:current-layer="svg14" />
  <path
     fill="#4f5454"
     stroke="#4f5454"
     stroke-width="0.09375"
     opacity="1"
     d="m 305.58632,99.262424 c 68.251,-34.965371 34.60541,77.022916 70.43142,87.198666 12.88121,-81.76297 16.5786,-91.762794 81.16994,-75.32561 -20.08487,-0.24917 101.58007,182.81636 -148.59326,161.05583 -43.07236,1.71617 -141.81609,-12.14529 -131.13302,-45.47037 -4.82282,-37.19505 -78.473047,-136.989795 19.21775,-114.19957 70.29392,-40.972213 42.44165,93.84511 75.93277,67.2543 -1.56005,-75.73155 12.96178,-83.578615 32.9744,-80.513246 z"
     id="path2"
     sodipodi:nodetypes="cccccccc" />
  <path
     fill="#4f5454"
     stroke="#4f5454"
     stroke-width="0.09375"
     opacity="1"
     d="m 190.5861,261.96714 c 20.16294,-4.29417 129.09866,14.90718 185.77289,7.42042 5.61683,-0.82558 77.80474,-14.08306 66.70159,-8.89482 -1.1208,10.05567 -8.81009,37.03005 -32.41984,40.01959 -26.02656,0.55531 -128.48089,11.25893 -165.75074,1.56585 5.85756,-3.64791 -35.79528,-2.72559 -39.07447,-7.42665 -4.99495,-3.48354 -11.36698,-27.95349 -15.22943,-32.68439 z"
     id="path7"
     sodipodi:nodetypes="ccccccc" />
  <path
     fill="#414444"
     stroke="#414444"
     stroke-width="0.09375"
     opacity="1"
     d="m 439.77,117.65 c 11.46,-0.07 21.37069,-6.5902 36.67885,1.2666 4.05613,3.46458 2.24886,26.52 2.83886,39.77 0.19,3.66 -0.008,11.63998 -0.47795,15.27998 -5.57,3.45 -11.99,5 -18.15,7.03 -0.14,9.04 0.36795,14.95547 -0.32205,23.97547 -0.72,10.67 -2.57318,26.83566 -7.36318,36.64566 -3.47,7.21 -14.09839,13.79499 -21.36839,16.45499 -11.22,4.03 -26.16454,4.42273 -37.91454,6.15273 -14.2,3.02 -57.68808,14.47718 -53.29825,3.71376 -6.08,0.19 -4.25469,0.0325 -4.66335,-3.13919 16.33,-6.16 33.2,-10.92 49.18,-17.99 17.35,-8.85 34.29,-20.07 45.43,-36.4 13.21,-20.76 17.02,-46.23 15.54,-70.44 -0.37,-7.8 -2.88,-15.28 -6.11,-22.32 z"
     id="path3"
     sodipodi:nodetypes="ccccccccccccccc" />
  <path
     fill="#4f5454"
     stroke="#4f5454"
     stroke-width="0.09375"
     opacity="1"
     d="m 448.6629,501.42597 c 50.9119,-7.19714 64.97649,76.94 33.52119,60.64179 -79.62123,13.45144 -243.92374,6.24079 -324.56726,-1.70358 -29.67565,8.97818 -27.86155,-35.92386 6.24037,-53.40397 30.32182,-11.57061 92.86677,5.83206 124.51957,2.81602 56.97744,1.86402 103.60724,-1.96747 160.28613,-8.35026 z"
     id="path12"
     sodipodi:nodetypes="cccccc" />
  <path
     fill="#4f5454"
     stroke="#4f5454"
     stroke-width="0.09375"
     opacity="1"
     d="m 391.75459,303.30303 c 36.48593,-3.08077 25.6489,54.57875 31.35414,76.87336 0.26769,45.43457 17.05729,91.5495 38.24518,122.67232 -28.80155,5.14502 -163.03071,5.68567 -192.20514,6.11721 -20.70667,-3.41853 -102.01494,4.82526 -79.87082,-27.87675 16.68751,-52.09126 30.20682,-117.56422 34.82252,-172.10714 26.27113,-7.03075 9.82059,-0.9702 36.54895,-5.48608 18.5057,-0.12212 112.64748,1.16141 131.10517,-0.19292 z"
     id="path10"
     sodipodi:nodetypes="cccccccc" />
  <path
     fill="#181919"
     stroke="#181919"
     stroke-width="0.09375"
     opacity="1.00"
     d=" M 273.60 90.63 C 282.75 89.68 291.77 87.70 300.97 87.21 C 313.94 86.45 326.98 86.46 339.92 87.71 C 347.11 88.51 354.21 89.89 361.41 90.66 C 361.81 109.43 361.38 128.22 362.38 146.97 C 362.90 157.90 365.25 168.67 368.76 179.01 C 378.42 173.90 380.06 161.90 379.80 152.06 C 379.18 136.84 378.05 121.63 378.26 106.38 C 396.45 104.37 414.67 102.13 433.01 102.17 C 451.82 102.12 470.52 104.51 489.16 106.79 C 489.11 119.54 490.48 132.25 490.26 145.00 C 490.23 157.22 490.31 169.45 490.22 181.68 C 484.00 184.05 477.82 186.52 471.65 188.99 C 471.75 203.97 472.38 219.26 468.49 233.87 C 466.01 243.62 459.64 251.80 452.23 258.37 C 453.06 268.11 452.39 278.56 446.89 286.97 C 440.79 296.84 429.87 302.04 419.52 306.28 C 422.12 331.59 425.29 356.87 430.06 381.88 C 437.24 420.08 448.35 457.40 460.40 494.31 C 470.53 494.72 481.59 496.38 489.11 503.84 C 499.09 513.48 501.94 527.86 503.44 541.10 C 504.32 549.14 504.75 557.21 505.15 565.29 C 483.50 568.06 461.86 571.11 440.06 572.55 C 408.11 574.78 376.09 576.26 344.06 576.00 C 318.05 575.97 292.04 576.05 266.03 575.96 C 247.84 575.27 229.64 574.86 211.47 573.89 C 184.73 572.24 158.10 569.26 131.56 565.66 C 131.02 565.58 129.94 565.41 129.41 565.33 C 130.16 552.10 130.57 538.72 133.75 525.79 C 136.16 516.28 140.72 506.70 149.00 500.97 C 156.34 495.77 165.59 494.77 174.33 494.29 C 182.04 470.32 189.59 446.28 195.78 421.87 C 205.56 383.97 211.44 345.17 215.24 306.25 C 205.06 302.16 194.46 297.06 188.22 287.60 C 182.46 279.15 181.48 268.46 182.51 258.53 C 175.67 252.16 169.37 244.76 166.68 235.63 C 162.18 220.54 162.85 204.55 163.00 188.98 C 156.80 186.50 150.57 184.07 144.34 181.63 C 144.34 166.75 144.31 151.87 144.36 136.99 C 144.71 126.90 145.37 116.83 145.49 106.74 C 163.27 104.68 181.08 102.31 199.01 102.19 C 218.31 101.93 237.50 104.24 256.65 106.39 C 256.58 118.59 256.32 130.80 255.45 142.98 C 255.01 151.77 254.31 160.99 257.59 169.37 C 259.15 173.52 262.33 176.82 266.17 178.96 C 270.25 167.08 272.51 154.62 272.79 142.07 C 273.45 124.93 273.08 107.77 273.60 90.63 M 289.24 107.02 C 289.29 118.67 289.14 130.32 288.88 141.97 C 288.44 156.54 286.18 171.03 281.78 184.94 C 280.15 189.29 280.32 194.55 278.08 198.46 C 268.41 196.75 258.32 193.93 251.06 186.94 C 243.41 179.81 240.13 169.19 239.60 158.99 C 238.95 146.01 240.68 133.08 240.85 120.12 C 218.33 117.21 195.46 116.58 172.85 118.96 C 168.73 119.31 164.63 119.83 160.52 120.24 C 160.45 134.17 160.48 148.11 160.01 162.03 C 160.03 164.90 159.73 167.85 160.54 170.64 C 165.81 174.71 172.66 175.81 178.80 178.05 C 178.56 192.51 178.77 207.00 180.36 221.38 C 181.54 228.57 183.16 236.20 188.18 241.80 C 193.95 248.27 202.46 251.43 210.70 253.39 L 210.85 253.72 C 245.91 262.13 282.04 265.15 318.02 265.57 C 323.92 265.29 329.89 265.80 335.73 264.80 C 341.82 265.18 347.88 264.26 353.96 264.07 C 368.41 262.92 382.92 261.76 397.12 258.74 C 408.87 257.01 420.68 255.05 431.90 251.02 C 439.17 248.36 446.37 243.93 449.84 236.72 C 454.63 226.91 454.72 215.74 455.44 205.07 C 456.13 196.05 455.72 187.00 455.86 177.96 C 462.02 175.93 468.44 174.38 474.01 170.93 C 474.48 167.29 474.58 163.62 474.39 159.96 C 473.80 146.71 474.04 133.45 474.00 120.19 C 462.61 119.19 451.23 117.58 439.77 117.65 C 424.53 117.13 409.28 118.22 394.16 120.10 C 394.30 132.72 395.95 145.30 395.46 157.93 C 395.04 168.25 392.01 179.06 384.44 186.47 C 377.11 193.79 366.74 196.73 356.81 198.46 L 356.30 198.07 C 354.74 192.09 353.69 185.97 351.76 180.08 C 344.68 156.41 345.94 131.44 345.70 107.03 C 339.01 104.92 331.95 104.27 324.97 104.01 C 313.03 103.95 300.79 103.45 289.24 107.02 M 198.53 265.93 C 198.76 270.67 199.61 275.58 202.28 279.61 C 205.86 285.17 211.97 288.40 218.05 290.52 C 226.73 293.48 235.80 295.21 244.89 296.26 C 272.73 298.66 300.76 300.79 328.73 299.79 C 343.09 299.93 357.45 298.70 371.77 297.73 C 389.46 296.39 407.98 295.40 424.06 287.16 C 431.91 283.27 436.00 274.63 436.13 266.14 C 424.72 270.08 412.94 273.27 400.88 274.29 C 399.97 274.34 399.10 274.51 398.27 274.81 C 395.91 274.89 393.57 275.07 391.24 275.40 C 366.98 278.99 342.45 280.35 317.95 280.84 C 292.25 280.44 266.53 278.83 241.09 275.09 C 232.20 274.33 223.40 272.96 214.69 271.11 C 209.42 269.07 203.76 268.13 198.53 265.93 M 230.95 309.79 C 227.02 347.70 221.63 385.55 212.37 422.55 C 206.16 447.52 198.19 472.01 190.20 496.45 C 194.51 497.06 198.83 497.57 203.15 498.05 C 241.96 502.00 280.98 502.64 319.96 502.42 C 326.16 502.22 332.43 502.87 338.60 502.07 C 358.43 502.92 378.24 501.29 398.06 500.82 C 413.41 499.69 428.73 498.13 444.04 496.54 C 443.57 493.73 442.72 491.02 441.76 488.35 C 436.26 471.66 431.01 454.89 426.32 437.96 C 414.65 396.14 408.12 353.08 403.82 309.94 C 402.20 310.16 400.58 310.39 398.96 310.58 C 392.33 311.54 385.63 311.92 379.01 313.00 C 343.76 315.50 308.35 315.89 273.06 314.03 C 263.18 314.30 253.54 311.36 243.66 311.87 L 243.70 311.48 C 239.41 311.24 235.17 310.52 230.95 309.79 M 158.18 514.21 C 154.26 518.22 151.83 523.53 150.50 528.94 C 148.62 536.61 147.50 544.44 146.49 552.27 C 150.87 552.89 155.25 553.50 159.64 553.99 C 181.69 556.70 203.85 558.27 226.03 559.37 C 250.25 560.41 274.49 561.56 298.73 560.80 C 320.50 561.23 342.28 560.87 364.05 561.01 C 405.45 559.75 446.96 558.15 488.02 552.22 C 487.06 545.80 486.30 539.34 484.89 532.99 C 483.78 527.63 482.44 522.16 479.28 517.60 C 475.57 511.25 467.23 510.88 460.70 510.51 C 455.19 510.42 449.66 510.43 444.23 511.40 C 417.17 515.12 389.88 516.58 362.61 517.49 C 343.73 517.71 324.85 517.65 305.97 517.66 C 286.63 517.59 267.26 517.83 247.96 516.36 C 229.46 515.99 211.05 513.65 192.67 511.92 C 185.61 510.12 178.24 510.33 171.01 510.54 C 166.63 511.08 161.89 511.61 158.18 514.21 Z"
     id="path1" />
  <path
     fill="#707575"
     stroke="#707575"
     stroke-width="0.09375"
     opacity="1.00"
     d=" M 160.52 120.24 C 164.63 119.83 168.73 119.31 172.85 118.96 C 172.81 132.95 172.48 146.97 172.97 160.94 C 178.86 164.92 186.12 166.34 192.45 169.55 C 192.43 177.38 191.95 185.19 191.90 193.02 C 191.82 201.54 190.53 210.19 192.33 218.63 C 194.19 226.80 198.75 233.97 203.10 241.00 C 205.60 245.15 208.83 248.87 210.70 253.39 C 202.46 251.43 193.95 248.27 188.18 241.80 C 183.16 236.20 181.54 228.57 180.36 221.38 C 178.77 207.00 178.56 192.51 178.80 178.05 C 172.66 175.81 165.81 174.71 160.54 170.64 C 159.73 167.85 160.03 164.90 160.01 162.03 C 160.48 148.11 160.45 134.17 160.52 120.24 Z"
     id="path4" />
  <path
     fill="#707575"
     stroke="#707575"
     stroke-width="0.09375"
     opacity="1.00"
     d=" M 198.53 265.93 C 203.76 268.13 209.42 269.07 214.69 271.11 C 223.81 282.24 236.96 288.73 249.13 295.90 C 247.71 296.04 246.30 296.16 244.89 296.26 C 235.80 295.21 226.73 293.48 218.05 290.52 C 211.97 288.40 205.86 285.17 202.28 279.61 C 199.61 275.58 198.76 270.67 198.53 265.93 Z"
     id="path5" />
  <path
     fill="#414444"
     stroke="#414444"
     stroke-width="0.09375"
     opacity="1.00"
     d=" M 400.88 274.29 C 412.94 273.27 424.72 270.08 436.13 266.14 C 436.00 274.63 431.91 283.27 424.06 287.16 C 407.98 295.40 389.46 296.39 371.77 297.73 C 357.45 298.70 343.09 299.93 328.73 299.79 C 339.47 296.21 350.71 294.33 361.30 290.26 C 373.81 285.61 386.57 281.33 398.27 274.81 C 399.10 274.51 399.97 274.34 400.88 274.29 Z"
     id="path6" />
  <path
     fill="#707575"
     stroke="#707575"
     stroke-width="0.09375"
     opacity="1.00"
     d=" M 230.95 309.79 C 235.17 310.52 239.41 311.24 243.70 311.48 L 243.66 311.87 C 241.25 350.08 233.99 387.78 225.06 424.95 C 219.11 449.70 211.52 474.02 203.15 498.05 C 198.83 497.57 194.51 497.06 190.20 496.45 C 198.19 472.01 206.16 447.52 212.37 422.55 C 221.63 385.55 227.02 347.70 230.95 309.79 Z"
     id="path8" />
  <path
     fill="#414444"
     stroke="#414444"
     stroke-width="0.09375"
     opacity="1.00"
     d=" M 398.96 310.58 C 400.58 310.39 402.20 310.16 403.82 309.94 C 408.12 353.08 414.65 396.14 426.32 437.96 C 431.01 454.89 436.26 471.66 441.76 488.35 C 442.72 491.02 443.57 493.73 444.04 496.54 C 428.73 498.13 413.41 499.69 398.06 500.82 C 378.24 501.29 358.43 502.92 338.60 502.07 C 353.07 494.50 366.20 484.16 376.15 471.14 C 388.25 456.20 395.64 437.86 398.85 418.99 C 404.63 383.09 401.27 346.63 398.96 310.58 Z"
     id="path9" />
  <path
     fill="#707575"
     stroke="#707575"
     stroke-width="0.09375"
     opacity="1.00"
     d=" M 158.18 514.21 C 161.89 511.61 166.63 511.08 171.01 510.54 C 178.24 510.33 185.61 510.12 192.67 511.92 C 186.40 514.47 179.56 515.96 173.98 519.97 C 170.01 522.76 167.36 526.99 165.37 531.35 C 162.17 538.49 160.21 546.18 159.64 553.99 C 155.25 553.50 150.87 552.89 146.49 552.27 C 147.50 544.44 148.62 536.61 150.50 528.94 C 151.83 523.53 154.26 518.22 158.18 514.21 Z"
     id="path11" />
  <path
     fill="#414444"
     stroke="#414444"
     stroke-width="0.09375"
     opacity="1.00"
     d=" M 460.70 510.51 C 467.23 510.88 475.57 511.25 479.28 517.60 C 482.44 522.16 483.78 527.63 484.89 532.99 C 486.30 539.34 487.06 545.80 488.02 552.22 C 446.96 558.15 405.45 559.75 364.05 561.01 C 342.28 560.87 320.50 561.23 298.73 560.80 C 309.17 559.80 319.60 558.77 330.05 557.90 C 377.03 553.90 423.39 545.05 470.07 538.65 C 469.86 528.54 464.71 519.51 460.70 510.51 Z"
     id="path13" />
  <path
     fill="#4f5454"
     stroke="#4f5454"
     stroke-width="0.09375"
     opacity="1.00"
     d=" M 131.56 565.66 C 158.10 569.26 184.73 572.24 211.47 573.89 C 186.46 573.71 161.58 570.32 136.83 566.92 C 135.04 566.63 133.20 566.45 131.56 565.66 Z"
     id="path14" />
</svg>

<svg xmlns="http://www.w3.org/2000/svg" viewBox="0 0 640 640"><path fill="#4f5454" stroke="#4f5454" stroke-width=".09" d="M305.59 99.26c68.25-34.96 34.6 77.03 70.43 87.2 12.88-81.76 16.58-91.76 81.17-75.32-20.09-.25 101.58 182.81-148.6 161.05-43.07 1.72-141.81-12.14-131.13-45.47-4.82-37.2-78.47-136.99 19.22-114.2 70.3-40.97 42.44 93.85 75.93 67.26-1.56-75.74 12.96-83.58 32.98-80.52z"/><path fill="#4f5454" stroke="#4f5454" stroke-width=".09" d="M190.59 261.97c20.16-4.3 129.1 14.9 185.77 7.42 5.62-.83 77.8-14.09 66.7-8.9-1.12 10.06-8.81 37.03-32.42 40.02-26.03.56-128.48 11.26-165.75 1.57 5.86-3.65-35.8-2.73-39.07-7.43-5-3.48-11.37-27.95-15.23-32.68z"/><path fill="#414444" stroke="#414444" stroke-width=".09" d="M439.77 117.65c11.46-.07 21.37-6.59 36.68 1.27 4.05 3.46 2.25 26.52 2.84 39.77.19 3.66-.01 11.64-.48 15.28-5.57 3.45-11.99 5-18.15 7.03-.14 9.04.37 14.95-.32 23.97-.72 10.67-2.58 26.84-7.37 36.65-3.47 7.2-14.1 13.8-21.36 16.45-11.22 4.03-26.17 4.43-37.92 6.16-14.2 3.02-57.69 14.47-53.3 3.7-6.08.2-4.25.04-4.66-3.13 16.33-6.16 33.2-10.92 49.18-17.99 17.35-8.85 34.29-20.07 45.43-36.4 13.21-20.76 17.02-46.23 15.54-70.44-.37-7.8-2.88-15.28-6.11-22.32z"/><path fill="#4f5454" stroke="#4f5454" stroke-width=".09" d="M448.66 501.43c50.91-7.2 64.98 76.94 33.52 60.64-79.62 13.45-243.92 6.24-324.56-1.7-29.68 8.97-27.86-35.93 6.24-53.41 30.32-11.57 92.86 5.83 124.52 2.82 56.97 1.86 103.6-1.97 160.28-8.35z"/><path fill="#4f5454" stroke="#4f5454" stroke-width=".09" d="M391.75 303.3c36.5-3.08 25.65 54.58 31.36 76.88.27 45.43 17.06 91.55 38.24 122.67-28.8 5.14-163.03 5.68-192.2 6.12-20.7-3.42-102.02 4.82-79.87-27.88 16.69-52.1 30.2-117.57 34.82-172.1 26.27-7.04 9.82-.98 36.55-5.5 18.5-.12 112.65 1.17 131.1-.19z"/><path fill="#181919" stroke="#181919" stroke-width=".09" d="M273.6 90.63c9.15-.95 18.17-2.93 27.37-3.42 12.97-.76 26.01-.75 38.95.5 7.19.8 14.29 2.18 21.49 2.95.4 18.77-.03 37.56.97 56.31.52 10.93 2.87 21.7 6.38 32.04 9.66-5.11 11.3-17.11 11.04-26.95-.62-15.22-1.75-30.43-1.54-45.68 18.19-2.01 36.41-4.25 54.75-4.21 18.81-.05 37.51 2.34 56.15 4.62-.05 12.75 1.32 25.46 1.1 38.21-.03 12.22.05 24.45-.04 36.68-6.22 2.37-12.4 4.84-18.57 7.31.1 14.98.73 30.27-3.16 44.88-2.48 9.75-8.85 17.93-16.26 24.5.83 9.74.16 20.19-5.34 28.6-6.1 9.87-17.02 15.07-27.37 19.31 2.6 25.31 5.77 50.59 10.54 75.6 7.18 38.2 18.29 75.52 30.34 112.43 10.13.41 21.19 2.07 28.71 9.53 9.98 9.64 12.83 24.02 14.33 37.26a407.1 407.1 0 0 1 1.71 24.19c-21.65 2.77-43.29 5.82-65.09 7.26-31.95 2.23-63.97 3.71-96 3.45-26.01-.03-52.02.05-78.03-.04-18.19-.69-36.39-1.1-54.56-2.07-26.74-1.65-53.37-4.63-79.91-8.23l-2.15-.33c.75-13.23 1.16-26.61 4.34-39.54 2.41-9.51 6.97-19.09 15.25-24.82 7.34-5.2 16.59-6.2 25.33-6.68 7.71-23.97 15.26-48.01 21.45-72.42 9.78-37.9 15.66-76.7 19.46-115.62-10.18-4.09-20.78-9.19-27.02-18.65-5.76-8.45-6.74-19.14-5.71-29.07-6.84-6.37-13.14-13.77-15.83-22.9-4.5-15.09-3.83-31.08-3.68-46.65-6.2-2.48-12.43-4.91-18.66-7.35 0-14.88-.03-29.76.02-44.64.35-10.09 1.01-20.16 1.13-30.25 17.78-2.06 35.59-4.43 53.52-4.55 19.3-.26 38.49 2.05 57.64 4.2-.07 12.2-.33 24.41-1.2 36.59-.44 8.79-1.14 18.01 2.14 26.39 1.56 4.15 4.74 7.45 8.58 9.59a122.07 122.07 0 0 0 6.62-36.89c.66-17.14.29-34.3.81-51.44m15.64 16.39c.05 11.65-.1 23.3-.36 34.95a158.25 158.25 0 0 1-7.1 42.97c-1.63 4.35-1.46 9.61-3.7 13.52-9.67-1.71-19.76-4.53-27.02-11.52-7.65-7.13-10.93-17.75-11.46-27.95-.65-12.98 1.08-25.91 1.25-38.87-22.52-2.91-45.39-3.54-68-1.16-4.12.35-8.22.87-12.33 1.28-.07 13.93-.04 27.87-.51 41.79.02 2.87-.28 5.82.53 8.61 5.27 4.07 12.12 5.17 18.26 7.41-.24 14.46-.03 28.95 1.56 43.33 1.18 7.19 2.8 14.82 7.82 20.42 5.77 6.47 14.28 9.63 22.52 11.59l.15.33c35.06 8.41 71.19 11.43 107.17 11.85 5.9-.28 11.87.23 17.71-.77 6.09.38 12.15-.54 18.23-.73 14.45-1.15 28.96-2.31 43.16-5.33 11.75-1.73 23.56-3.69 34.78-7.72 7.27-2.66 14.47-7.09 17.94-14.3 4.79-9.81 4.88-20.98 5.6-31.65.69-9.02.28-18.07.42-27.11 6.16-2.03 12.58-3.58 18.15-7.03.47-3.64.57-7.31.38-10.97-.59-13.25-.35-26.51-.39-39.77-11.39-1-22.77-2.61-34.23-2.54-15.24-.52-30.49.57-45.61 2.45.14 12.62 1.79 25.2 1.3 37.83-.42 10.32-3.45 21.13-11.02 28.54-7.33 7.32-17.7 10.26-27.63 11.99l-.51-.39c-1.56-5.98-2.61-12.1-4.54-17.99-7.08-23.67-5.82-48.64-6.06-73.05-6.69-2.11-13.75-2.76-20.73-3.02-11.94-.06-24.18-.56-35.73 3.01m-90.71 158.91c.23 4.74 1.08 9.65 3.75 13.68 3.58 5.56 9.69 8.79 15.77 10.91 8.68 2.96 17.75 4.69 26.84 5.74 27.84 2.4 55.87 4.53 83.84 3.53 14.36.14 28.72-1.09 43.04-2.06 17.69-1.34 36.21-2.33 52.29-10.57 7.85-3.89 11.94-12.53 12.07-21.02-11.41 3.94-23.19 7.13-35.25 8.15a9.1 9.1 0 0 0-2.61.52c-2.36.08-4.7.26-7.03.59-24.26 3.59-48.79 4.95-73.29 5.44-25.7-.4-51.42-2.01-76.86-5.75a215.3 215.3 0 0 1-26.4-3.98c-5.27-2.04-10.93-2.98-16.16-5.18m32.42 43.86c-3.93 37.91-9.32 75.76-18.58 112.76-6.21 24.97-14.18 49.46-22.17 73.9 4.31.61 8.63 1.12 12.95 1.6 38.81 3.95 77.83 4.59 116.81 4.37 6.2-.2 12.47.45 18.64-.35 19.83.85 39.64-.78 59.46-1.25 15.35-1.13 30.67-2.69 45.98-4.28a47.37 47.37 0 0 0-2.28-8.19 1096.13 1096.13 0 0 1-15.44-50.39c-11.67-41.82-18.2-84.88-22.5-128.02-1.62.22-3.24.45-4.86.64-6.63.96-13.33 1.34-19.95 2.42a859.07 859.07 0 0 1-105.95 1.03c-9.88.27-19.52-2.67-29.4-2.16l.04-.39a111.5 111.5 0 0 1-12.75-1.69m-72.77 204.42c-3.92 4.01-6.35 9.32-7.68 14.73-1.88 7.67-3 15.5-4.01 23.33 4.38.62 8.76 1.23 13.15 1.72 22.05 2.71 44.21 4.28 66.39 5.38 24.22 1.04 48.46 2.19 72.7 1.43 21.77.43 43.55.07 65.32.21 41.4-1.26 82.91-2.86 123.97-8.79-.96-6.42-1.72-12.88-3.13-19.23-1.11-5.36-2.45-10.83-5.61-15.39-3.71-6.35-12.05-6.72-18.58-7.09-5.51-.09-11.04-.08-16.47.89-27.06 3.72-54.35 5.18-81.62 6.09-18.88.22-37.76.16-56.64.17-19.34-.07-38.71.17-58.01-1.3-18.5-.37-36.91-2.71-55.29-4.44-7.06-1.8-14.43-1.59-21.66-1.38-4.38.54-9.12 1.07-12.83 3.67Z"/><path fill="#707575" stroke="#707575" stroke-width=".09" d="M160.52 120.24c4.11-.41 8.21-.93 12.33-1.28-.04 13.99-.37 28.01.12 41.98 5.89 3.98 13.15 5.4 19.48 8.61-.02 7.83-.5 15.64-.55 23.47-.08 8.52-1.37 17.17.43 25.61 1.86 8.17 6.42 15.34 10.77 22.37 2.5 4.15 5.73 7.87 7.6 12.39-8.24-1.96-16.75-5.12-22.52-11.59-5.02-5.6-6.64-13.23-7.82-20.42-1.59-14.38-1.8-28.87-1.56-43.33-6.14-2.24-12.99-3.34-18.26-7.41-.81-2.79-.51-5.74-.53-8.61.47-13.92.44-27.86.51-41.79ZM198.53 265.93c5.23 2.2 10.89 3.14 16.16 5.18 9.12 11.13 22.27 17.62 34.44 24.79-1.42.14-2.83.26-4.24.36-9.09-1.05-18.16-2.78-26.84-5.74-6.08-2.12-12.19-5.35-15.77-10.91-2.67-4.03-3.52-8.94-3.75-13.68Z"/><path fill="#414444" stroke="#414444" stroke-width=".09" d="M400.88 274.29c12.06-1.02 23.84-4.21 35.25-8.15-.13 8.49-4.22 17.13-12.07 21.02-16.08 8.24-34.6 9.23-52.29 10.57-14.32.97-28.68 2.2-43.04 2.06 10.74-3.58 21.98-5.46 32.57-9.53 12.51-4.65 25.27-8.93 36.97-15.45a9.1 9.1 0 0 1 2.61-.52Z"/><path fill="#707575" stroke="#707575" stroke-width=".09" d="M230.95 309.79c4.22.73 8.46 1.45 12.75 1.69l-.04.39c-2.41 38.21-9.67 75.91-18.6 113.08-5.95 24.75-13.54 49.07-21.91 73.1-4.32-.48-8.64-.99-12.95-1.6 7.99-24.44 15.96-48.93 22.17-73.9 9.26-37 14.65-74.85 18.58-112.76Z"/><path fill="#414444" stroke="#414444" stroke-width=".09" d="M398.96 310.58c1.62-.19 3.24-.42 4.86-.64 4.3 43.14 10.83 86.2 22.5 128.02 4.69 16.93 9.94 33.7 15.44 50.39a47.37 47.37 0 0 1 2.28 8.19 1539.58 1539.58 0 0 1-45.98 4.28c-19.82.47-39.63 2.1-59.46 1.25 14.47-7.57 27.6-17.91 37.55-30.93 12.1-14.94 19.49-33.28 22.7-52.15 5.78-35.9 2.42-72.36.11-108.41Z"/><path fill="#707575" stroke="#707575" stroke-width=".09" d="M158.18 514.21c3.71-2.6 8.45-3.13 12.83-3.67 7.23-.21 14.6-.42 21.66 1.38-6.27 2.55-13.11 4.04-18.69 8.05-3.97 2.79-6.62 7.02-8.61 11.38a67.5 67.5 0 0 0-5.73 22.64c-4.39-.49-8.77-1.1-13.15-1.72 1.01-7.83 2.13-15.66 4.01-23.33 1.33-5.41 3.76-10.72 7.68-14.73Z"/><path fill="#414444" stroke="#414444" stroke-width=".09" d="M460.7 510.51c6.53.37 14.87.74 18.58 7.09 3.16 4.56 4.5 10.03 5.61 15.39 1.41 6.35 2.17 12.81 3.13 19.23-41.06 5.93-82.57 7.53-123.97 8.79-21.77-.14-43.55.22-65.32-.21 10.44-1 20.87-2.03 31.32-2.9 46.98-4 93.34-12.85 140.02-19.25-.21-10.11-5.36-19.14-9.37-28.14Z"/><path fill="#4f5454" stroke="#4f5454" stroke-width=".09" d="M131.56 565.66c26.54 3.6 53.17 6.58 79.91 8.23-25.01-.18-49.89-3.57-74.64-6.97-1.79-.29-3.63-.47-5.27-1.26Z"/></svg>
